X:81
T:SLYLDMN3- Silly Old Man
S:Walsh's 'Caledonian Country Dances', I, c 1734
Q:1/4=120
L:1/8
M:9/8
K:Dm
C/D/|F2F Ffd cAF|G2F FAc d2f|FAF fed cAF|GAc AGF D2::\
f|fcf f3/2g/f e3/2d/c|dcd f3/2g/a/b/g2f|f3/2g/a gaf e3/2d/c|\
def cAF~G2::\

